images/6605060.svg

<?xml version="1.0" encoding="UTF-8"?>
<svg xmlns="http://www.w3.org/2000/svg" xmlns:xlink="http://www.w3.org/1999/xlink" width="300pt" height="300pt" viewBox="0 0 300 300" version="1.1">
<defs>
<g>
<symbol overflow="visible" id="glyph0-0">
<path style="stroke:none;" d="M 0.453125 1.59375 L 0.453125 -6.34375 L 4.953125 -6.34375 L 4.953125 1.59375 Z M 0.953125 1.09375 L 4.453125 1.09375 L 4.453125 -5.84375 L 0.953125 -5.84375 Z M 0.953125 1.09375 "/>
</symbol>
<symbol overflow="visible" id="glyph0-1">
<path style="stroke:none;" d="M 0.890625 -6.5625 L 2.078125 -6.5625 L 4.984375 -1.078125 L 4.984375 -6.5625 L 5.84375 -6.5625 L 5.84375 0 L 4.65625 0 L 1.75 -5.484375 L 1.75 0 L 0.890625 0 Z M 0.890625 -6.5625 "/>
</symbol>
<symbol overflow="visible" id="glyph0-2">
<path style="stroke:none;" d="M 0.890625 -6.5625 L 1.765625 -6.5625 L 1.765625 -3.875 L 5 -3.875 L 5 -6.5625 L 5.890625 -6.5625 L 5.890625 0 L 5 0 L 5 -3.125 L 1.765625 -3.125 L 1.765625 0 L 0.890625 0 Z M 0.890625 -6.5625 "/>
</symbol>
<symbol overflow="visible" id="glyph0-3">
<path style="stroke:none;" d="M 0.890625 -6.5625 L 4.65625 -6.5625 L 4.65625 -5.8125 L 1.765625 -5.8125 L 1.765625 -3.875 L 4.375 -3.875 L 4.375 -3.140625 L 1.765625 -3.140625 L 1.765625 0 L 0.890625 0 Z M 0.890625 -6.5625 "/>
</symbol>
</g>
</defs>
<g id="surface46869">
<rect x="0" y="0" width="300" height="300" style="fill:rgb(100%,100%,100%);fill-opacity:1;stroke:none;"/>
<path style="fill:none;stroke-width:1.2;stroke-linecap:butt;stroke-linejoin:miter;stroke:rgb(0%,0%,0%);stroke-opacity:1;stroke-miterlimit:10;" d="M 52.039062 120.34375 L 69.464844 133.4375 "/>
<path style="fill:none;stroke-width:1.2;stroke-linecap:butt;stroke-linejoin:miter;stroke:rgb(0%,0%,0%);stroke-opacity:1;stroke-miterlimit:10;" d="M 69.464844 133.4375 L 89.519531 124.886719 "/>
<path style="fill:none;stroke-width:1.2;stroke-linecap:butt;stroke-linejoin:miter;stroke:rgb(0%,0%,0%);stroke-opacity:1;stroke-miterlimit:10;" d="M 89.519531 124.886719 L 98.234375 131.433594 "/>
<path style="fill:none;stroke-width:1.2;stroke-linecap:butt;stroke-linejoin:miter;stroke:rgb(0%,0%,100%);stroke-opacity:1;stroke-miterlimit:10;" d="M 98.234375 131.433594 L 106.945312 137.980469 "/>
<path style="fill:none;stroke-width:1.2;stroke-linecap:butt;stroke-linejoin:miter;stroke:rgb(0%,0%,100%);stroke-opacity:1;stroke-miterlimit:10;" d="M 106.945312 137.980469 L 117.363281 134.777344 "/>
<path style="fill:none;stroke-width:1.2;stroke-linecap:butt;stroke-linejoin:miter;stroke:rgb(0%,0%,0%);stroke-opacity:1;stroke-miterlimit:10;" d="M 117.363281 134.777344 L 127.78125 131.578125 "/>
<path style="fill:none;stroke-width:1.2;stroke-linecap:butt;stroke-linejoin:miter;stroke:rgb(0%,0%,0%);stroke-opacity:1;stroke-miterlimit:10;" d="M 106.597656 159.777344 L 106.773438 148.878906 "/>
<path style="fill:none;stroke-width:1.2;stroke-linecap:butt;stroke-linejoin:miter;stroke:rgb(0%,0%,100%);stroke-opacity:1;stroke-miterlimit:10;" d="M 106.773438 148.878906 L 106.945312 137.980469 "/>
<path style=" stroke:none;fill-rule:nonzero;fill:rgb(100%,100%,100%);fill-opacity:1;" d="M 103.945312 132.480469 L 110.945312 132.480469 L 110.945312 143.480469 L 103.945312 143.480469 Z M 103.945312 132.480469 "/>
<g style="fill:rgb(0%,0%,100%);fill-opacity:1;">
  <use xlink:href="#glyph0-1" x="103.945312" y="141.143555"/>
</g>
<path style="fill:none;stroke-width:1.2;stroke-linecap:butt;stroke-linejoin:miter;stroke:rgb(0%,0%,0%);stroke-opacity:1;stroke-miterlimit:10;" d="M 127.78125 131.578125 L 140.3125 149.414062 "/>
<path style="fill:none;stroke-width:1.2;stroke-linecap:butt;stroke-linejoin:miter;stroke:rgb(0%,0%,0%);stroke-opacity:1;stroke-miterlimit:10;" d="M 133.234375 130.414062 L 143.257812 144.683594 "/>
<path style="fill:none;stroke-width:1.2;stroke-linecap:butt;stroke-linejoin:miter;stroke:rgb(0%,0%,100%);stroke-opacity:1;stroke-miterlimit:10;" d="M 136.964844 111.808594 L 132.375 121.691406 "/>
<path style="fill:none;stroke-width:1.2;stroke-linecap:butt;stroke-linejoin:miter;stroke:rgb(0%,0%,0%);stroke-opacity:1;stroke-miterlimit:10;" d="M 132.375 121.691406 L 127.78125 131.578125 "/>
<path style="fill:none;stroke-width:1.2;stroke-linecap:butt;stroke-linejoin:miter;stroke:rgb(0%,0%,0%);stroke-opacity:1;stroke-miterlimit:10;" d="M 140.3125 149.414062 L 162.023438 147.480469 "/>
<path style="fill:none;stroke-width:1.2;stroke-linecap:butt;stroke-linejoin:miter;stroke:rgb(0%,0%,0%);stroke-opacity:1;stroke-miterlimit:10;" d="M 140.3125 149.414062 L 133.765625 158.128906 "/>
<path style="fill:none;stroke-width:1.2;stroke-linecap:butt;stroke-linejoin:miter;stroke:rgb(0%,0%,100%);stroke-opacity:1;stroke-miterlimit:10;" d="M 133.765625 158.128906 L 127.21875 166.84375 "/>
<path style="fill:none;stroke-width:1.2;stroke-linecap:butt;stroke-linejoin:miter;stroke:rgb(0%,0%,0%);stroke-opacity:1;stroke-miterlimit:10;" d="M 162.023438 147.480469 L 166.617188 137.597656 "/>
<path style="fill:none;stroke-width:1.2;stroke-linecap:butt;stroke-linejoin:miter;stroke:rgb(0%,0%,100%);stroke-opacity:1;stroke-miterlimit:10;" d="M 166.617188 137.597656 L 171.207031 127.710938 "/>
<path style="fill:none;stroke-width:1.2;stroke-linecap:butt;stroke-linejoin:miter;stroke:rgb(0%,0%,0%);stroke-opacity:1;stroke-miterlimit:10;" d="M 158.292969 143.34375 L 161.964844 135.4375 "/>
<path style="fill:none;stroke-width:1.2;stroke-linecap:butt;stroke-linejoin:miter;stroke:rgb(0%,0%,100%);stroke-opacity:1;stroke-miterlimit:10;" d="M 161.964844 135.4375 L 165.636719 127.527344 "/>
<path style="fill:none;stroke-width:1.2;stroke-linecap:butt;stroke-linejoin:miter;stroke:rgb(0%,0%,0%);stroke-opacity:1;stroke-miterlimit:10;" d="M 162.023438 147.480469 L 168.289062 156.402344 "/>
<path style="fill:none;stroke-width:1.2;stroke-linecap:butt;stroke-linejoin:miter;stroke:rgb(0%,0%,100%);stroke-opacity:1;stroke-miterlimit:10;" d="M 168.289062 156.402344 L 174.554688 165.320312 "/>
<path style="fill:none;stroke-width:1.2;stroke-linecap:butt;stroke-linejoin:miter;stroke:rgb(0%,0%,100%);stroke-opacity:1;stroke-miterlimit:10;" d="M 171.207031 127.710938 L 164.941406 118.792969 "/>
<path style="fill:none;stroke-width:1.2;stroke-linecap:butt;stroke-linejoin:miter;stroke:rgb(0%,0%,0%);stroke-opacity:1;stroke-miterlimit:10;" d="M 164.941406 118.792969 L 158.679688 109.875 "/>
<path style=" stroke:none;fill-rule:nonzero;fill:rgb(100%,100%,100%);fill-opacity:1;" d="M 168.207031 122.210938 L 175.207031 122.210938 L 175.207031 133.210938 L 168.207031 133.210938 Z M 168.207031 122.210938 "/>
<g style="fill:rgb(0%,0%,100%);fill-opacity:1;">
  <use xlink:href="#glyph0-1" x="168.207031" y="130.874023"/>
</g>
<path style="fill:none;stroke-width:1.2;stroke-linecap:butt;stroke-linejoin:miter;stroke:rgb(0%,0%,0%);stroke-opacity:1;stroke-miterlimit:10;" d="M 158.679688 109.875 L 147.820312 110.839844 "/>
<path style="fill:none;stroke-width:1.2;stroke-linecap:butt;stroke-linejoin:miter;stroke:rgb(0%,0%,100%);stroke-opacity:1;stroke-miterlimit:10;" d="M 147.820312 110.839844 L 136.964844 111.808594 "/>
<path style="fill:none;stroke-width:1.2;stroke-linecap:butt;stroke-linejoin:miter;stroke:rgb(0%,0%,0%);stroke-opacity:1;stroke-miterlimit:10;" d="M 156.960938 115.175781 L 148.277344 115.949219 "/>
<path style="fill:none;stroke-width:1.2;stroke-linecap:butt;stroke-linejoin:miter;stroke:rgb(0%,0%,100%);stroke-opacity:1;stroke-miterlimit:10;" d="M 148.277344 115.949219 L 139.589844 116.722656 "/>
<path style="fill:none;stroke-width:1.2;stroke-linecap:butt;stroke-linejoin:miter;stroke:rgb(0%,0%,0%);stroke-opacity:1;stroke-miterlimit:10;" d="M 158.679688 109.875 L 167.859375 90.105469 "/>
<path style=" stroke:none;fill-rule:nonzero;fill:rgb(100%,100%,100%);fill-opacity:1;" d="M 133.964844 106.308594 L 140.964844 106.308594 L 140.964844 117.308594 L 133.964844 117.308594 Z M 133.964844 106.308594 "/>
<g style="fill:rgb(0%,0%,100%);fill-opacity:1;">
  <use xlink:href="#glyph0-1" x="133.964844" y="114.97168"/>
</g>
<path style="fill:none;stroke-width:1.2;stroke-linecap:butt;stroke-linejoin:miter;stroke:rgb(0%,0%,100%);stroke-opacity:1;stroke-miterlimit:10;" d="M 174.554688 165.320312 L 185.410156 164.351562 "/>
<path style="fill:none;stroke-width:1.2;stroke-linecap:butt;stroke-linejoin:miter;stroke:rgb(0%,0%,0%);stroke-opacity:1;stroke-miterlimit:10;" d="M 185.410156 164.351562 L 196.265625 163.386719 "/>
<path style=" stroke:none;fill-rule:nonzero;fill:rgb(100%,100%,100%);fill-opacity:1;" d="M 167.554688 159.820312 L 181.554688 159.820312 L 181.554688 170.820312 L 167.554688 170.820312 Z M 167.554688 159.820312 "/>
<g style="fill:rgb(0%,0%,100%);fill-opacity:1;">
  <use xlink:href="#glyph0-1" x="167.554688" y="168.483398"/>
  <use xlink:href="#glyph0-2" x="174.532227" y="168.483398"/>
</g>
<path style="fill:none;stroke-width:1.2;stroke-linecap:butt;stroke-linejoin:miter;stroke:rgb(0%,0%,0%);stroke-opacity:1;stroke-miterlimit:10;" d="M 196.265625 163.386719 L 208.796875 181.222656 "/>
<path style="fill:none;stroke-width:1.2;stroke-linecap:butt;stroke-linejoin:miter;stroke:rgb(0%,0%,0%);stroke-opacity:1;stroke-miterlimit:10;" d="M 208.796875 181.222656 L 219.652344 180.257812 "/>
<path style="fill:none;stroke-width:1.2;stroke-linecap:butt;stroke-linejoin:miter;stroke:rgb(0%,0%,100%);stroke-opacity:1;stroke-miterlimit:10;" d="M 219.652344 180.257812 L 230.507812 179.292969 "/>
<path style="fill:none;stroke-width:1.2;stroke-linecap:butt;stroke-linejoin:miter;stroke:rgb(0%,0%,100%);stroke-opacity:1;stroke-miterlimit:10;" d="M 230.507812 179.292969 L 236.773438 188.210938 "/>
<path style="fill:none;stroke-width:1.2;stroke-linecap:butt;stroke-linejoin:miter;stroke:rgb(0%,0%,0%);stroke-opacity:1;stroke-miterlimit:10;" d="M 236.773438 188.210938 L 243.039062 197.128906 "/>
<path style="fill:none;stroke-width:1.2;stroke-linecap:butt;stroke-linejoin:miter;stroke:rgb(0%,0%,100%);stroke-opacity:1;stroke-miterlimit:10;" d="M 230.507812 179.292969 L 235.101562 169.40625 "/>
<path style="fill:none;stroke-width:1.2;stroke-linecap:butt;stroke-linejoin:miter;stroke:rgb(0%,0%,0%);stroke-opacity:1;stroke-miterlimit:10;" d="M 235.101562 169.40625 L 239.691406 159.523438 "/>
<path style=" stroke:none;fill-rule:nonzero;fill:rgb(100%,100%,100%);fill-opacity:1;" d="M 227.507812 173.792969 L 234.507812 173.792969 L 234.507812 184.792969 L 227.507812 184.792969 Z M 227.507812 173.792969 "/>
<g style="fill:rgb(0%,0%,100%);fill-opacity:1;">
  <use xlink:href="#glyph0-1" x="227.507812" y="182.456055"/>
</g>
<path style="fill:none;stroke-width:1.2;stroke-linecap:butt;stroke-linejoin:miter;stroke:rgb(0%,0%,0%);stroke-opacity:1;stroke-miterlimit:10;" d="M 243.039062 197.128906 L 264.75 195.195312 "/>
<path style="fill:none;stroke-width:1.2;stroke-linecap:butt;stroke-linejoin:miter;stroke:rgb(0%,0%,0%);stroke-opacity:1;stroke-miterlimit:10;" d="M 239.691406 159.523438 L 261.402344 157.589844 "/>
<path style="fill:none;stroke-width:1.2;stroke-linecap:butt;stroke-linejoin:miter;stroke:rgb(0%,0%,100%);stroke-opacity:1;stroke-miterlimit:10;" d="M 127.21875 166.84375 L 116.910156 163.308594 "/>
<path style="fill:none;stroke-width:1.2;stroke-linecap:butt;stroke-linejoin:miter;stroke:rgb(0%,0%,0%);stroke-opacity:1;stroke-miterlimit:10;" d="M 116.910156 163.308594 L 106.597656 159.777344 "/>
<path style="fill:none;stroke-width:1.2;stroke-linecap:butt;stroke-linejoin:miter;stroke:rgb(0%,0%,100%);stroke-opacity:1;stroke-miterlimit:10;" d="M 126.820312 161.285156 L 118.570312 158.457031 "/>
<path style="fill:none;stroke-width:1.2;stroke-linecap:butt;stroke-linejoin:miter;stroke:rgb(0%,0%,0%);stroke-opacity:1;stroke-miterlimit:10;" d="M 118.570312 158.457031 L 110.324219 155.632812 "/>
<path style=" stroke:none;fill-rule:nonzero;fill:rgb(100%,100%,100%);fill-opacity:1;" d="M 124.21875 161.34375 L 131.21875 161.34375 L 131.21875 172.34375 L 124.21875 172.34375 Z M 124.21875 161.34375 "/>
<g style="fill:rgb(0%,0%,100%);fill-opacity:1;">
  <use xlink:href="#glyph0-1" x="124.21875" y="170.006836"/>
</g>
<path style="fill:none;stroke-width:1.2;stroke-linecap:butt;stroke-linejoin:miter;stroke:rgb(0%,0%,0%);stroke-opacity:1;stroke-miterlimit:10;" d="M 106.597656 159.777344 L 88.761719 172.304688 "/>
<path style="fill:none;stroke-width:1.2;stroke-linecap:butt;stroke-linejoin:miter;stroke:rgb(0%,0%,0%);stroke-opacity:1;stroke-miterlimit:10;" d="M 88.761719 172.304688 L 68.992188 163.125 "/>
<path style="fill:none;stroke-width:1.2;stroke-linecap:butt;stroke-linejoin:miter;stroke:rgb(0%,0%,0%);stroke-opacity:1;stroke-miterlimit:10;" d="M 84.625 176.039062 L 68.808594 168.691406 "/>
<path style="fill:none;stroke-width:1.2;stroke-linecap:butt;stroke-linejoin:miter;stroke:rgb(0%,0%,0%);stroke-opacity:1;stroke-miterlimit:10;" d="M 90.695312 194.019531 L 88.761719 172.304688 "/>
<path style="fill:none;stroke-width:1.2;stroke-linecap:butt;stroke-linejoin:miter;stroke:rgb(0%,0%,0%);stroke-opacity:1;stroke-miterlimit:10;" d="M 68.992188 163.125 L 51.15625 175.652344 "/>
<path style="fill:none;stroke-width:1.2;stroke-linecap:butt;stroke-linejoin:miter;stroke:rgb(0%,0%,0%);stroke-opacity:1;stroke-miterlimit:10;" d="M 51.15625 175.652344 L 53.085938 197.363281 "/>
<path style="fill:none;stroke-width:1.2;stroke-linecap:butt;stroke-linejoin:miter;stroke:rgb(0%,0%,0%);stroke-opacity:1;stroke-miterlimit:10;" d="M 56.457031 177.367188 L 58.003906 194.738281 "/>
<path style="fill:none;stroke-width:1.2;stroke-linecap:butt;stroke-linejoin:miter;stroke:rgb(0%,0%,0%);stroke-opacity:1;stroke-miterlimit:10;" d="M 53.085938 197.363281 L 72.855469 206.546875 "/>
<path style="fill:none;stroke-width:1.2;stroke-linecap:butt;stroke-linejoin:miter;stroke:rgb(0%,0%,0%);stroke-opacity:1;stroke-miterlimit:10;" d="M 53.085938 197.363281 L 44.167969 203.628906 "/>
<path style="fill:none;stroke-width:1.2;stroke-linecap:butt;stroke-linejoin:miter;stroke:rgb(20%,80%,80%);stroke-opacity:1;stroke-miterlimit:10;" d="M 44.167969 203.628906 L 35.25 209.894531 "/>
<path style="fill:none;stroke-width:1.2;stroke-linecap:butt;stroke-linejoin:miter;stroke:rgb(0%,0%,0%);stroke-opacity:1;stroke-miterlimit:10;" d="M 72.855469 206.546875 L 90.695312 194.019531 "/>
<path style="fill:none;stroke-width:1.2;stroke-linecap:butt;stroke-linejoin:miter;stroke:rgb(0%,0%,0%);stroke-opacity:1;stroke-miterlimit:10;" d="M 71.691406 201.097656 L 85.960938 191.074219 "/>
<path style=" stroke:none;fill-rule:nonzero;fill:rgb(100%,100%,100%);fill-opacity:1;" d="M 29.25 204.394531 L 35.25 204.394531 L 35.25 215.394531 L 29.25 215.394531 Z M 29.25 204.394531 "/>
<g style="fill:rgb(20%,80%,80%);fill-opacity:1;">
  <use xlink:href="#glyph0-3" x="29.25" y="213.057617"/>
</g>
</g>
</svg>

<svg xmlns="http://www.w3.org/2000/svg" xmlns:xlink="http://www.w3.org/1999/xlink" width="300pt" height="300pt" viewBox="0 0 300 300"><defs><symbol overflow="visible"><path d="M.453 1.594v-7.938h4.5v7.938zm.5-.5h3.5v-6.938h-3.5zm0 0"/></symbol><symbol overflow="visible" id="a"><path d="M.89-6.563H2.08l2.906 5.485v-5.484h.86V0H4.656L1.75-5.484V0H.89zm0 0"/></symbol><symbol overflow="visible" id="b"><path d="M.89-6.563h.876v2.688H5v-2.688h.89V0H5v-3.125H1.766V0H.89zm0 0"/></symbol><symbol overflow="visible" id="c"><path d="M.89-6.563h3.766v.75h-2.89v1.938h2.61v.734h-2.61V0H.89zm0 0"/></symbol></defs><g><path fill="#fff" d="M0 0h300v300H0z"/><path d="M52.04 120.344l17.425 13.094M69.465 133.438l20.055-8.55M89.52 124.887l8.714 6.547" stroke-width="1.2" stroke="#000" stroke-miterlimit="10" fill="none"/><path d="M98.234 131.434l8.71 6.546M106.945 137.98l10.418-3.203" stroke-width="1.2" stroke="#00f" stroke-miterlimit="10" fill="none"/><path d="M117.363 134.777l10.418-3.2M106.598 159.777l.175-10.898" stroke-width="1.2" stroke="#000" stroke-miterlimit="10" fill="none"/><path d="M106.773 148.88l.172-10.9" stroke-width="1.2" stroke="#00f" stroke-miterlimit="10" fill="none"/><path d="M103.945 132.48h7v11h-7zm0 0" fill="#fff"/><use xlink:href="#a" x="103.945" y="141.144" fill="#00f"/><path d="M127.78 131.578l12.532 17.836M133.234 130.414l10.024 14.27" stroke-width="1.2" stroke="#000" stroke-miterlimit="10" fill="none"/><path d="M136.965 111.81l-4.59 9.88" stroke-width="1.2" stroke="#00f" stroke-miterlimit="10" fill="none"/><path d="M132.375 121.69l-4.594 9.888M140.313 149.414l21.71-1.934M140.313 149.414l-6.547 8.715" stroke-width="1.2" stroke="#000" stroke-miterlimit="10" fill="none"/><path d="M133.766 158.13l-6.547 8.714" stroke-width="1.2" stroke="#00f" stroke-miterlimit="10" fill="none"/><path d="M162.023 147.48l4.594-9.882" stroke-width="1.2" stroke="#000" stroke-miterlimit="10" fill="none"/><path d="M166.617 137.598l4.59-9.887" stroke-width="1.2" stroke="#00f" stroke-miterlimit="10" fill="none"/><path d="M158.293 143.344l3.672-7.906" stroke-width="1.2" stroke="#000" stroke-miterlimit="10" fill="none"/><path d="M161.965 135.438l3.672-7.91" stroke-width="1.2" stroke="#00f" stroke-miterlimit="10" fill="none"/><path d="M162.023 147.48l6.266 8.922" stroke-width="1.2" stroke="#000" stroke-miterlimit="10" fill="none"/><path d="M168.29 156.402l6.265 8.918M171.207 127.71l-6.266-8.917" stroke-width="1.2" stroke="#00f" stroke-miterlimit="10" fill="none"/><path d="M164.94 118.793l-6.26-8.918" stroke-width="1.2" stroke="#000" stroke-miterlimit="10" fill="none"/><path d="M168.207 122.21h7v11h-7zm0 0" fill="#fff"/><use xlink:href="#a" x="168.207" y="130.874" fill="#00f"/><path d="M158.68 109.875l-10.86.965" stroke-width="1.2" stroke="#000" stroke-miterlimit="10" fill="none"/><path d="M147.82 110.84l-10.855.97" stroke-width="1.2" stroke="#00f" stroke-miterlimit="10" fill="none"/><path d="M156.96 115.176l-8.683.773" stroke-width="1.2" stroke="#000" stroke-miterlimit="10" fill="none"/><path d="M148.277 115.95l-8.687.773" stroke-width="1.2" stroke="#00f" stroke-miterlimit="10" fill="none"/><path d="M158.68 109.875l9.18-19.77" stroke-width="1.2" stroke="#000" stroke-miterlimit="10" fill="none"/><path d="M133.965 106.31h7v11h-7zm0 0" fill="#fff"/><use xlink:href="#a" x="133.965" y="114.972" fill="#00f"/><path d="M174.555 165.32l10.855-.968" stroke-width="1.2" stroke="#00f" stroke-miterlimit="10" fill="none"/><path d="M185.41 164.352l10.856-.965" stroke-width="1.2" stroke="#000" stroke-miterlimit="10" fill="none"/><path d="M167.555 159.82h14v11h-14zm0 0" fill="#fff"/><g fill="#00f"><use xlink:href="#a" x="167.555" y="168.483"/><use xlink:href="#b" x="174.532" y="168.483"/></g><path d="M196.266 163.387l12.53 17.836M208.797 181.223l10.855-.965" stroke-width="1.2" stroke="#000" stroke-miterlimit="10" fill="none"/><path d="M219.652 180.258l10.856-.965M230.508 179.293l6.265 8.918" stroke-width="1.2" stroke="#00f" stroke-miterlimit="10" fill="none"/><path d="M236.773 188.21l6.266 8.92" stroke-width="1.2" stroke="#000" stroke-miterlimit="10" fill="none"/><path d="M230.508 179.293l4.594-9.887" stroke-width="1.2" stroke="#00f" stroke-miterlimit="10" fill="none"/><path d="M235.102 169.406l4.59-9.883" stroke-width="1.2" stroke="#000" stroke-miterlimit="10" fill="none"/><path d="M227.508 173.793h7v11h-7zm0 0" fill="#fff"/><use xlink:href="#a" x="227.508" y="182.456" fill="#00f"/><path d="M243.04 197.13l21.71-1.935M239.69 159.523l21.712-1.933" stroke-width="1.2" stroke="#000" stroke-miterlimit="10" fill="none"/><path d="M127.22 166.844l-10.31-3.535" stroke-width="1.2" stroke="#00f" stroke-miterlimit="10" fill="none"/><path d="M116.91 163.31l-10.312-3.533" stroke-width="1.2" stroke="#000" stroke-miterlimit="10" fill="none"/><path d="M126.82 161.285l-8.25-2.828" stroke-width="1.2" stroke="#00f" stroke-miterlimit="10" fill="none"/><path d="M118.57 158.457l-8.246-2.824" stroke-width="1.2" stroke="#000" stroke-miterlimit="10" fill="none"/><path d="M124.22 161.344h7v11h-7zm0 0" fill="#fff"/><use xlink:href="#a" x="124.219" y="170.007" fill="#00f"/><path d="M106.598 159.777l-17.836 12.528M88.762 172.305l-19.77-9.18M84.625 176.04l-15.816-7.35M90.695 194.02l-1.933-21.715M68.992 163.125l-17.836 12.527M51.156 175.652l1.93 21.71M56.457 177.367l1.547 17.37M53.086 197.363l19.77 9.184M53.086 197.363l-8.918 6.266" stroke-width="1.2" stroke="#000" stroke-miterlimit="10" fill="none"/><path d="M44.168 203.63l-8.918 6.265" stroke-width="1.2" stroke="#3cc" stroke-miterlimit="10" fill="none"/><path d="M72.855 206.547l17.84-12.527M71.69 201.098l14.27-10.024" stroke-width="1.2" stroke="#000" stroke-miterlimit="10" fill="none"/><path d="M29.25 204.395h6v11h-6zm0 0" fill="#fff"/><use xlink:href="#c" x="29.25" y="213.058" fill="#3cc"/></g></svg>
